X:45
T:The Blackthorn
C:Trad.
D:"Cooley", track 7
M:4/4
R:reel
K:D
fe|d2 FB AFEF|D2 dB BABc|dF~F2 AFEF|GBAF Dgfe|
d2 FB AFEF|Dddc BABc|dF ~F2 AFEF|GBAF DABc||
defd egec|A2 (3cBA eA (3cBA|defd efge|abag fdec|
defd egec|A2 (3cBA eA (3cBA|defg a3 g|fdec dgfe||
